public/icon/svg/Cursor.svg

<?xml version="1.0" encoding="UTF-8"?>
<svg width="1029px" height="1024px" viewBox="0 0 1029 1024" version="1.1" xmlns="http://www.w3.org/2000/svg" xmlns:xlink="http://www.w3.org/1999/xlink">
    <title>Cursor</title>
    <defs>
        <polygon id="path-1" points="0 0 641.460753 0 641.460753 731.289459 0 731.289459"></polygon>
    </defs>
    <g id="ICON-新版方图标" stroke="none" stroke-width="1" fill="none" fill-rule="evenodd">
        <g id="Cursor" transform="translate(0.061, 0)">
            <polygon id="蒙版路径" fill="#14120B" fill-rule="nonzero" points="1028.25537 1023.3812 -7.92871865e-13 1024 -7.92871865e-13 -1.69375491e-12 1028.25537 -1.69375491e-12"></polygon>
            <g id="Clipped" transform="translate(191.9953, 145.9998)">
                <mask id="mask-2" fill="white">
                    <use xlink:href="#path-1"></use>
                </mask>
                <g id="路径"></g>
                <path d="M628.678938,173.087505 L335.923158,4.06774136 C326.523293,-1.36118038 314.92346,-1.36118038 305.523596,4.06774136 L12.7818158,173.087505 C4.87892967,177.651439 2.84212997e-14,186.089318 2.84212997e-14,195.229186 L2.84212997e-14,536.060273 C2.84212997e-14,545.198141 4.87892967,553.638019 12.7818158,558.199954 L305.535596,727.221517 C314.93746,732.649439 326.537293,732.649439 335.937158,727.221517 L628.692938,558.199954 C636.594824,553.638019 641.474753,545.198141 641.474753,536.060273 L641.474753,195.229186 C641.474753,186.089318 636.594824,177.651439 628.692938,173.087505 L628.678938,173.087505 Z M610.289203,208.890989 L327.677277,698.385933 C325.767304,701.685885 320.723377,700.337905 320.723377,696.51796 L320.723377,376.00058 C320.723377,369.594672 317.301426,363.672758 311.749506,360.456804 L34.1815073,200.205114 C30.8815548,198.293142 32.2295354,193.249214 36.0494804,193.249214 L601.273333,193.249214 C609.299217,193.249214 614.317145,201.949089 610.303203,208.904989 L610.289203,208.904989 L610.289203,208.890989 Z" id="形状" fill="#EDECEC" fill-rule="nonzero" mask="url(#mask-2)"></path>
            </g>
        </g>
    </g>
</svg>

<svg xmlns="http://www.w3.org/2000/svg" xmlns:xlink="http://www.w3.org/1999/xlink" width="1029" height="1024"><defs><path id="a" d="M0 0h641.46v731.29H0z"/></defs><g fill="none" fill-rule="evenodd"><path fill="#14120B" fill-rule="nonzero" d="M1028.316 1023.381.061 1024V0h1028.255z"/><g transform="translate(192.056 146)"><mask id="b" fill="#fff"><use xlink:href="#a"/></mask><path fill="#EDECEC" fill-rule="nonzero" d="M628.679 173.088 335.923 4.068c-9.4-5.43-21-5.43-30.4 0L12.783 173.088A25.57 25.57 0 0 0 0 195.229V536.06a25.567 25.567 0 0 0 12.782 22.14l292.754 169.022a30.415 30.415 0 0 0 30.401 0L628.693 558.2a25.57 25.57 0 0 0 12.782-22.14V195.23c0-9.14-4.88-17.579-12.782-22.142h-.014m-18.39 35.803L327.677 698.386c-1.91 3.3-6.954 1.952-6.954-1.868V376.001a17.97 17.97 0 0 0-8.973-15.544L34.182 200.205c-3.3-1.912-1.952-6.956 1.867-6.956h565.224c8.026 0 13.044 8.7 9.03 15.656h-.014v-.014" mask="url(#b)"/></g></g></svg>
